tools/download-figma-icons/icons/outlined-medium/thumbs-down.svg

<svg width="24" height="24" viewBox="0 0 24 24" fill="none" xmlns="http://www.w3.org/2000/svg">
<path fill-rule="evenodd" clip-rule="evenodd" d="M20.3662 3.75H6.74775V12.75C6.74775 12.759 6.7455 12.7665 6.7455 12.7755C10.3687 13.0343 11.9962 15.2535 11.9962 19.875C11.9962 20.4952 12.501 21 13.1212 21C13.7407 21 14.2455 20.4952 14.2455 19.875V13.5C14.2455 13.0852 14.5807 12.75 14.9955 12.75H21.7515C22.0267 12.75 22.2112 12.5775 22.296 12.474C22.4625 12.2723 22.5337 12.0082 22.4985 11.817L20.3662 3.75ZM4.49851 3H2.24926C1.83526 3 1.49926 3.336 1.49926 3.75V12.75C1.49926 13.164 1.83526 13.5 2.24926 13.5H4.49851C4.91251 13.5 5.24851 13.164 5.24851 12.75V3.75C5.24851 3.336 4.91251 3 4.49851 3ZM23.4525 13.4288C23.022 13.9507 22.4018 14.25 21.7515 14.25H15.7455V19.875C15.7455 21.3225 14.568 22.5 13.1213 22.5C11.6738 22.5 10.497 21.3225 10.497 19.875C10.497 15.2843 8.84025 14.292 6.15975 14.2537C5.748 14.7083 5.15925 15 4.4985 15H2.24925C1.00875 15 0 13.9905 0 12.75V3.75C0 2.5095 1.00875 1.5 2.24925 1.5H4.4985C5.16075 1.5 5.751 1.79325 6.1635 2.25H20.3663C21.078 2.25 21.696 2.757 21.8258 3.41025L23.9587 11.4832C24.09 12.1582 23.9002 12.8857 23.4525 13.4288Z" fill="black"/>
</svg>

<svg width="24" height="24" viewBox="0 0 24 24" fill="none" xmlns="http://www.w3.org/2000/svg"><path fill-rule="evenodd" clip-rule="evenodd" d="M20.366 3.75H6.748v9c0 .009-.003.017-.003.025 3.624.26 5.251 2.479 5.251 7.1 0 .62.505 1.125 1.125 1.125s1.124-.505 1.124-1.125V13.5a.75.75 0 0 1 .75-.75h6.757c.275 0 .46-.172.544-.276.166-.202.238-.466.203-.657L20.366 3.75ZM4.5 3H2.25a.75.75 0 0 0-.75.75v9c0 .414.336.75.75.75H4.5a.75.75 0 0 0 .75-.75v-9A.75.75 0 0 0 4.5 3Zm18.954 10.429a2.21 2.21 0 0 1-1.701.821h-6.006v5.625A2.628 2.628 0 0 1 13.12 22.5a2.627 2.627 0 0 1-2.624-2.625c0-4.59-1.657-5.583-4.337-5.621-.412.454-1 .746-1.662.746H2.25C1.01 15 0 13.99 0 12.75v-9C0 2.51 1.009 1.5 2.25 1.5h2.248c.663 0 1.253.293 1.665.75h14.203c.712 0 1.33.507 1.46 1.16l2.133 8.073a2.38 2.38 0 0 1-.506 1.946Z" fill="currentColor"/></svg>
